X:1
T:Untitled. SenH.142
T:Untitled. SenH.142
T:in Hand D - different handwriting
C:in Hand D
C:- different handwriting
L:1/8
Q:1/4=100
M:3/8
K:F
V:1 treble 
V:1
 z3"^23 bars rest!" | fff | f/>g/a/>b/c' | fgc | f2 g | a(b/a/)(g/f/) | gc z | z3 | z z c' | %9
 a(g/f/)(e/f/) | gc z | z3 | z z g | c'=ba | gfe | agf | edc | g (f/e/)(d/c/) | dG z | z3 | z z d | %21
 ggg | g3- | g3- | g3- | g3 | a/g/f/e/d/c/ | =B2 g | c'=ba | g2 c' | e(f/e/)(d/e/) | cc z | z3 | %33
 z z c | c'c'c' | c'3- | c'3- | c'3- | (c'3 | d'/)c'/b/a/g/f/ | e2 c' | ag/f/e/f/ | gc z | z3 | %44
 z3 | faf | d3 | gbg | e3 | ac'a | f2 f | (g/f/)(g/a/)(f/g/) | a/g/a/b/g/a/ | b/a/b/c'/a/b/ | %54
 c'f z | agf | g/f/g/e/f/g/ | a/g/a/f/g/a/ | g2 z | agf | g/f/g/e/f/g/ | a/g/a/f/a/b/ | c'3- | %63
 c'3- | c'3- | c'3- | c'3 | z z b | a (g/f/)(e/f/) | gc z | z3 | z z c | fed | cBA | %74
 a (g/a/)(b/c'/) | (ag)f | g ce | g ce | fF z | z3 | z3 | z3 | z3 | z3 | z3 | z3 | z3 | z3 | z3 | %89
 z3 | z ag | fed | b (a/g/)(f/e/) | a (g/f/)(e/d/) | ^c2 a | b (a/b/)(c'/a/) | d'(c'/b/)(a/g/) | %97
 g2 g | g (f/e/)(f/g/) | ecc' | =b(a/^g/)(a/b/) | ^gee | a (g/f/)(e/d/) | =b3- | b/a/^g/^f/e/d/ | %105
 c2 a | c>=BA | A3/2 |] %108

